X:1
T:B  Major Timothy Swan, 1801
T:Isaac Watts, 1719 (Psalm 92, Part 1)     88. 88. (L. M.)
T:Portland
T:Transcribed from Swan's New England Harmony, 1801.
%%score [ 1 2 3 4 ]
L:1/8
Q:1/8=250
M:3/2
K:Bb
V:1 treble nm="Treble\nI" snm="Tr.\nI"
V:2 treble nm="Treble\nII" snm="Tr.\nII"
V:3 treble-8 nm="Tenor" snm="T."
V:4 bass nm="Bass" snm="B."
V:1
 d4 | (d4 c4) d4 | (d4 c4) d4 | B8 B4 | A8 B4 | (d4 f4) f4 | (B4 c4) d4 | (f4 c4) c4 | c8 F4 | %9
w: 1.~Sweet|is * the|work, * my|God, my|King, To|praise~ _ thy|name,~ _ give|thanks * and|sing. To|
w: 2.~Sweet|is * the|day * of|sa- cred|rest, No|mor- * tal|cares~ _ shall|seize * my|breast; O|
 F8 B4 | (B4 c4) d4 | (d4 f4) (e2 d2) | c8 (d2 c2) | (B4 d4) f4 | F8 c4 | (f4 d4) c4 | B12 |] %17
w: show thy|love * by|mor- * ning *|light, And *|talk * of|all thy|truth~ _ at|night.|
w: may my|heart * in|tune * be *|found, Like *|Da- * vid's|harp of|sol- * emn|sound!|
V:2
 F4 | F8 f4 | f8 d4 | e8 f4 | F8 B4 | (B4 c4) (d2 f2) | (B4 A4) d4 | (B4 A4) G4 | F8 c4 | %9
w: 3.~My|heart shall|tri- umph|in my|Lord, And|bless~ _ his *|works,~ _ and|bless~ _ his|word; Thy|
w: 4.~Fools|ne- ver|raise their|thoughts so|high; Like|brutes~ _ they *|live,~ _ like|brutes~ _ they|die; Like|
 (c4 d4) (d2 B2) | (B4 A4) B4 | d8 G4 | F8 f4 | (d4 e2 d2) (c2 B2) | f8 f4 | (d4 f4) e4 | d12 |] %17
w: works * of *|grace, * how|bright they|shine! How|deep~ _ _ thy *|coun- sels!|how~ _ di-|vine!|
w: grass * they *|flou- * rish,|till thy|breath Blast|them~ _ _ in *|ev- er-|las- * ting|death.|
V:3
 B4 | (B4 A4) B4 | (B4 A4) B4 | (B4 e4) d4 | c8 d4 | (de d2 c4) d4 | (de d2 c4) B4 | (G4 A4) B4 | %8
w: 5.~But|I * shall|share * a|glo- * rious|part When|grace * * * hath|well * * * re-|fined * my|
w: 6.~Sin|(my * worst|en- * e-|my * be-|fore) Shall|vex * * * my|eyes * * * and|ears * no|
 c8 (c2 A2) | (F4 B4) (G2 E2) | (E4 D4) F4 | (B2 e2 d2 e2) (c2 B2) | A8 (B2 g2) | %13
w: heart; And *|fresh * sup- *|plies * of|joy * * * are *|shed, Like *|
w: more; My *|in- * ward *|foes * shall|all * * * be *|slain, Nor *|
 (f4 e2 d2) (c2 B2) | (Bc B2 c4) F4 | (c3 d B4) A4 | B12 |] %17
w: ho- * * ly *|oil,~ _ _ _ to|cheer~ _ _ my|head.|
w: Sa- * * tan *|break~ _ _ _ my|peace~ _ _ a-|gain.|
V:4
 B,,4 | (D,4 F,4) B,4 | (D4 F,4) (G,2 B,2) | E,8 B,,4 | F,8 B,4 | (B,4 F,4) D,4 | (B,4 F,4) G,4 | %7
w: 7.~Then|shall * I|see,~ _ and *|hear, and|know All|I~ _ de-|sired~ _ or|
 (B,4 C4) C,4 | F,8 F,4 | (F,4 B,,4) G,4 | (G,4 F,4) B,,4 | (B,,2 C,2 D,4) E,4 | F,8 (B,2 C2) | %13
w: wished * be-|low; And|eve- * ry|power * find|sweet * * em-|ploy In~ _|
 D8 (F,2 G,2) | F,8 F,4 | F,8 F,4 | B,,12 |] %17
w: that e- *|ter- nal|world of|joy.|

